SharedPackages/Infrastructure/DesignResourcesKitIcons/Sources/DesignResourcesKitIcons/DesignSystemImages.xcassets/Color/24px/Key-Color-import-24.imageset/Key-Color-import-24.svg

<svg width="24" height="24" viewBox="0 0 24 24" fill="none" xmlns="http://www.w3.org/2000/svg">
<path d="M15 2.625C18.5208 2.625 21.375 5.47918 21.375 9C21.375 10.0583 21.1146 11.0551 20.6582 11.9336C19.6296 11.1896 18.3664 10.75 17 10.75C13.5541 10.75 10.7595 13.5387 10.75 16.9824L9.74023 18.0059C9.50699 18.2421 9.18838 18.3749 8.85645 18.375H7.87012C7.45864 18.3751 7.12507 18.7086 7.125 19.1201V19.8848C7.12487 20.7077 6.45773 21.3749 5.63477 21.375H4.6123C3.51477 21.375 2.625 20.4852 2.625 19.3877V18.8555C2.62507 18.0674 2.93724 17.3115 3.49316 16.7529L8.56934 11.6533C8.84181 11.3793 8.92365 10.9738 8.82715 10.5996C8.69514 10.0886 8.625 9.55224 8.625 9C8.625 5.47918 11.4792 2.625 15 2.625ZM15.5 6.66699C14.4875 6.66699 13.667 7.48748 13.667 8.5C13.667 9.51252 14.4875 10.333 15.5 10.333C16.5125 10.333 17.333 9.51252 17.333 8.5C17.333 7.48748 16.5125 6.66699 15.5 6.66699Z" fill="#FFD65C"/>
<path d="M15.0908 2.00098C18.915 2.0496 22 5.16433 22 9L21.999 9.09082C21.9841 10.2639 21.6796 11.3667 21.1553 12.333C20.8409 12.0529 20.4982 11.8044 20.1318 11.5918C20.5261 10.8128 20.75 9.93279 20.75 9C20.75 5.84918 18.2156 3.29078 15.0742 3.25098L15 3.25C11.8244 3.25 9.25 5.82436 9.25 9L9.25098 9.09375C9.25792 9.52854 9.31319 9.95124 9.41113 10.3564L9.43262 10.4424V10.4434L9.44531 10.4951C9.56432 11.0191 9.45772 11.6151 9.05371 12.0518L9.01172 12.0947L3.93652 17.1934C3.49709 17.6348 3.25007 18.2326 3.25 18.8555V19.3877C3.25 20.1401 3.85994 20.75 4.6123 20.75H5.63477C6.11255 20.7499 6.49987 20.3625 6.5 19.8848V19.1201C6.50007 18.3635 7.11346 17.7501 7.87012 17.75H8.85645L8.88672 17.749C9.0302 17.7418 9.1666 17.6848 9.27246 17.5879L9.29492 17.5664L10.8281 16.0137C10.7772 16.335 10.75 16.6643 10.75 17C10.75 17.2768 10.7698 17.5491 10.8047 17.8164L10.1846 18.4453L10.0518 18.5674C9.72949 18.836 9.32423 18.9885 8.90234 18.999L8.85645 19H7.87012C7.80381 19.0001 7.75007 19.0538 7.75 19.1201V19.8848C7.74987 21.0529 6.8029 21.9999 5.63477 22H4.6123C3.16959 22 2 20.8304 2 19.3877V18.8555C2.00007 17.9021 2.37823 16.9872 3.05078 16.3115L8.12598 11.2129L8.14355 11.1943C8.22603 11.0979 8.26969 10.9386 8.22266 10.7559L8.19531 10.6494C8.07591 10.1553 8.00937 9.64098 8.00098 9.11328L8 9C8 5.13401 11.134 2 15 2L15.0908 2.00098ZM15.5 6.04199C16.8577 6.04199 17.958 7.1423 17.958 8.5C17.958 9.53043 17.324 10.4118 16.4248 10.7773C16.0784 10.809 15.7399 10.8673 15.4121 10.9531C14.0952 10.9068 13.042 9.82824 13.042 8.5C13.042 7.1423 14.1423 6.04199 15.5 6.04199ZM15.5 7.29199C14.8327 7.29199 14.292 7.83266 14.292 8.5C14.292 9.16734 14.8327 9.70801 15.5 9.70801C16.1673 9.70801 16.708 9.16734 16.708 8.5L16.707 8.4375C16.6745 7.79919 16.1464 7.29199 15.5 7.29199Z" fill="url(#paint0_linear_263_21306)"/>
<circle cx="17" cy="17" r="4.625" fill="#557FF3"/>
<path d="M17 12C19.7614 12 22 14.2386 22 17C22 19.7614 19.7614 22 17 22C14.2386 22 12 19.7614 12 17C12 14.2386 14.2386 12 17 12ZM17 13.25C14.9289 13.25 13.25 14.9289 13.25 17C13.25 19.0711 14.9289 20.75 17 20.75C19.0711 20.75 20.75 19.0711 20.75 17C20.75 14.9289 19.0711 13.25 17 13.25Z" fill="url(#paint1_linear_263_21306)"/>
<path d="M18.875 17C17.1984 17 16.8016 16.9998 15.125 16.9998M15.125 16.9998L17 15.125M15.125 16.9998L17 18.875" stroke="white" stroke-width="1.25" stroke-linecap="round" stroke-linejoin="round"/>
<defs>
<linearGradient id="paint0_linear_263_21306" x1="12" y1="2.75" x2="12" y2="21.25" gradientUnits="userSpaceOnUse">
<stop stop-color="#E2A412"/>
<stop offset="1" stop-color="#C18010"/>
</linearGradient>
<linearGradient id="paint1_linear_263_21306" x1="17" y1="12" x2="17" y2="22" gradientUnits="userSpaceOnUse">
<stop stop-color="#557FF3"/>
<stop offset="1" stop-color="#2B55CA"/>
</linearGradient>
</defs>
</svg>

<svg fill="none" viewBox="0 0 24 24" xmlns="http://www.w3.org/2000/svg">
  <path fill="#ffd65c" d="M15 2.625a6.375 6.375 0 0 1 5.902 8.783c-.116.283-.466.363-.728.208a6.25 6.25 0 0 0-9.424 5.366l-1.01 1.024a1.24 1.24 0 0 1-.884.369H7.87a.745.745 0 0 0-.745.745v.765a1.49 1.49 0 0 1-1.49 1.49H4.612a1.987 1.987 0 0 1-1.987-1.987v-.533c0-.788.312-1.544.868-2.102l5.076-5.1c.273-.274.355-.68.258-1.053A6.375 6.375 0 0 1 15 2.625m.5 4.042a1.833 1.833 0 1 0 0 3.666 1.833 1.833 0 0 0 0-3.666"/>
  <path fill="url(#Key-Color-import-24_svg__a)" d="M15.09 2.001A7 7 0 0 1 22 9l-.001.09a7 7 0 0 1-.428 2.324c-.178.484-.785.588-1.22.31a6 6 0 0 0-.22-.132 5.75 5.75 0 0 0-5.058-8.34L15 3.25A5.75 5.75 0 0 0 9.25 9l.001.094q.012.653.16 1.262l.022.086.012.053c.12.524.013 1.12-.391 1.557l-.042.043-5.075 5.098a2.36 2.36 0 0 0-.687 1.662v.533c0 .752.61 1.362 1.362 1.362h1.023a.865.865 0 0 0 .865-.865v-.765c0-.757.613-1.37 1.37-1.37h.986l.03-.001a.62.62 0 0 0 .386-.161l.023-.022 1.533-1.552a6.3 6.3 0 0 0-.023 1.802l-.62.63-.133.121a1.87 1.87 0 0 1-1.15.432L8.856 19H7.87a.12.12 0 0 0-.12.12v.765A2.115 2.115 0 0 1 5.635 22H4.612A2.61 2.61 0 0 1 2 19.388v-.533a3.6 3.6 0 0 1 1.05-2.544l5.076-5.098.018-.019a.49.49 0 0 0 .079-.438l-.028-.107a7 7 0 0 1-.194-1.536L8 9a7 7 0 0 1 7-7zm.41 4.041a2.458 2.458 0 0 1 .925 4.735q-.52.047-1.013.176a2.455 2.455 0 0 1-2.37-2.453c0-1.358 1.1-2.458 2.458-2.458m0 1.25A1.208 1.208 0 1 0 16.708 8.5l-.001-.062A1.21 1.21 0 0 0 15.5 7.292"/>
  <path fill="#557ff3" d="M21.625 17a4.625 4.625 0 1 1-9.25 0 4.625 4.625 0 0 1 9.25 0"/>
  <path fill="url(#Key-Color-import-24_svg__b)" d="M17 12a5 5 0 1 1 0 10 5 5 0 0 1 0-10m0 1.25a3.75 3.75 0 1 0 0 7.5 3.75 3.75 0 0 0 0-7.5"/>
  <path fill="#fff" d="M14.683 17.442a.626.626 0 0 1 .884-.885l.808.808v-2.24l.013-.126a.625.625 0 0 1 1.224 0l.013.126v2.24l.808-.808.098-.08a.626.626 0 0 1 .866.867l-.08.098-1.876 1.875a.625.625 0 0 1-.883 0z"/>
  <defs>
    <linearGradient id="Key-Color-import-24_svg__a" x1="12" x2="12" y1="2.75" y2="21.25" gradientUnits="userSpaceOnUse">
      <stop stop-color="#e2a412"/>
      <stop offset="1" stop-color="#c18010"/>
    </linearGradient>
    <linearGradient id="Key-Color-import-24_svg__b" x1="17" x2="17" y1="12" y2="22" gradientUnits="userSpaceOnUse">
      <stop stop-color="#557ff3"/>
      <stop offset="1" stop-color="#2b55ca"/>
    </linearGradient>
  </defs>
</svg>
